X:1
T:Afterwards
T:Afterwards
T:John W. Mullen
T:Mary Mark Lemon
T:Library of Congress, Music Division
T:Library of Congress, Music Division
T:Library of Congress, Music Division
T:Library of Congress, Music Division
C:John W. Mullen
Z:Mary Mark Lemon
Z:Library of Congress, Music Division
%%score ( 1 2 ) { ( 3 5 ) | ( 4 6 ) }
L:1/8
Q:1/4=80
M:4/4
K:G
V:1 treble nm="Contralto"
V:2 treble 
V:3 treble nm="Piano"
V:5 treble 
V:4 bass 
V:6 bass 
V:1
 z8 | z8 | z8 | z8 |!p! G2 F3/2 E/ D3 ^D | E =D!>(! A, D C2!>)! B,2 | G2 x3/2 E/ F3 F | %7
w: ||||1. Af\- ter the day has|sung its song of sor\- row,|And by one the|
w: ||||2. Some\- times my heart grows|wea\- ry of its sad\- ness,|Some\- my life grows|
 A G x3/2 E/ A4 | G2 x3/2 E/ D3 ^D |!<(! E =D A,!<)!!>(! D C2 B,2!>)! | %10
w: gold\- en ap\- pear,|I ger yet, where|once we met, be\- lov\- ed,|
w: wea\- ry * pain,|Then I wait, and|list\- en for your whis\- per,|
 z!p! B, B, B, F3"^poco rit." B, | D ^C B, ^A, B,4 | z"^dolce." D D D G3 G | G F E ^D E2 B,2 | %14
w: And seem to feel thy|spir\- it still is near.|The flow'rs have fied that|blos\- som'd in the spring tide,|
w: Till tears de\- part, and|sun\- shine comes a\- gain.|It can\- not be that|we should part for\- ev\- er,|
 z B, B, B, G3 E | (G F E ^D) E4 | z E =D ^C F3 F | (A E F3/2 G/)!>(! G2 F2!>)! | z D D D A,3 A, | %19
w: The birds are mute that|sang their songs a\- bove,|And tho' the years that|drift\- ed us a\- sun\- der,|Time can not break the|
w: That loves sweet song is|hush'd for us al\- way,|I hear it yet, al\-|tho' its theme be al\- ter'd|'Twill reach thy heart, and|
 B, B, ^C3/2 D/ D2 z2 |"^dolce." B2 A G F3 E | D ^D F3/2 E/ E2 =D2 | G2 F3/2 E/ A3 G | %23
w: gold\- en chain of love.|Still we can love, al\-|tho' the sha\- dows gath\- er|Still we can hope, un\-|
w: bring thee back some day.|Love we can love, al\-|||
 F E B, ^C!<(! D4!<)! |!>(! B2 A3/2 G/ F3!>)! E | D ^D F3/2 E/ E2 =D2 | G2 ^G3/2 G/ A3 E | %27
w: til the clouds be past;|Come to my heart, and|whis\- per thro' the si\- lence,|"Hope on, dear heart, our|
w: ||||
 =G"^rit." F E !fermata!F G4 :| G2 ^G3/2 G/ A3 E | =G F G3/2 A/ B4 | %30
w: lives shall meet at last"|"Hope on, dear heart, our|lives shall meet at last,|
w: |||
!<(! B2 [Ac]!<)! [G^c]!>(! [Bd]3!>)!"^rit." D | E F !fermata!A3/2 G/ !fermata!G4 | z8 | z8 |] %34
w: Hope on, dear heart, our|lives shall meet at last."|||
w: ||||
V:2
 x8 | x8 | x8 | x8 | x8 | x8 | x2 F E x4 | x2 F E x4 | x2 F E x4 | x8 | x8 | x8 | x8 | x8 | x8 | %15
w: |||||||||||||||
w: |||||||* its||||||||
 x8 | x8 | x8 | x8 | x8 | x8 | x8 | x8 | x8 | x8 | x8 | x8 | x8 :| x8 | x8 | x8 | x8 | x8 | x8 |] %34
w: |||||||||||||||||||
w: |||||||||||||||||||
V:3
!mf!!>(!!>(! [Bb]2 [Aa]>[Gg] [Ff]3 [Ee]!>)!!>)! | %1
 ([Dd][^D^d][Ff]>[Ee])!>(!!>(! (([Ee]2 [=D=d]2))!>)!!>)! | %2
!<(! ([Gg]2 [^G^g]>[Gg])!<)!!>(! (([Aa]3 [Ee]))!>)! | %3
"_dim." ([=G=g][Ff][Ee][Ff]) [Gg] [G,B,][G,B,][G,B,] | %4
 z[I:staff +1] [D,G,B,][D,G,B,][D,G,B,][I:staff -1] z[I:staff +1] [D,F,C][D,F,C][D,F,C] | %5
[I:staff -1] z[I:staff +1] [D,F,C][D,F,C][D,F,C][I:staff -1] z[I:staff +1] [D,G,B,][D,G,B,][D,G,B,] | %6
[I:staff -1] z!>(![I:staff +1] [D,G,D][D,G,D][D,G,D]!>)![I:staff -1] z[I:staff +1] [D,G,D][D,G,D][D,G,D] | %7
[I:staff -1] z!<(! [G,^CE][G,CE][G,CE]!<)! z!>(![I:staff +1] [G,D][E,G,^C][D,A,=C]!>)! | %8
[I:staff -1] z!p![I:staff +1] [D,G,B,][D,G,B,][D,G,B,][I:staff -1] z[I:staff +1] [D,F,C][D,F,C][D,F,C] | %9
[I:staff -1] z[I:staff +1] [D,F,C][D,F,C][D,F,C][I:staff -1] z[I:staff +1] [D,G,B,][D,G,B,][D,G,B,] | %10
[I:staff -1] z[I:staff +1] [D,^E,B,][D,E,B,][D,E,B,][I:staff -1] z"_colla voce"[I:staff +1] [F,B,D][F,B,D][F,B,D] | %11
[I:staff -1] z[I:staff +1] [E,F,^C][D,F,B,][E,F,A,][I:staff -1] z[I:staff +1] [D,F,B,][D,F,B,][D,F,B,] | %12
[I:staff -1] z [F,=CD][F,=CD][F,=CD] z [G,B,D][G,B,D][G,B,D] | %13
 z ([A,B,^D][G,B,E][A,B,F]) z [G,B,E][G,B,E][G,B,E] | %14
 z!<(! [A,B,^D][A,B,D][A,B,D]!<)! z [G,B,E][G,B,E][G,B,E] | %15
 z!>(! ([A,C][G,B,][F,A,])!>)! z[I:staff +1] ([E,G,][G,B,][G,B,]) | %16
[I:staff -1] z [G,A,E][G,A,E][G,A,^C] z [F,A,D][F,A,D][F,A,D] | %17
 z [G,^C][G,C][G,C] [F,D][F,D][F,D] z | z [G,DE] z!<(! [^G,D=F] z [A,D^F][A,DF][A,DF]!<)! | %19
 z!>(! [^G,DE] z [=G,A,^CE]!>)! z (d[^ce][=cf]) | [Bg]2 [Af]>[Ge] [Fd]3 [Ec] | %21
 [DB][^DB][F=d]>[Ec] (([Ec]2 [=DB]2)) |!>(! [Bg]2 [Af]>[Ge] [FA]4!>)! | %23
 z [^G,DE] z [=G,A,^CE] [F,A,D]!<(! ([Fdf][Geg][Afa])!<)! |!f! [Bgb]2 [Afa]>[Geg] [Fdf]3 [Ece] | %25
 [Dcd][^Dc^d][F=dg]>[Ece] (([Ece]2 [=DBd]2)) | %26
 z!p![I:staff +1] [D,G,D]!<(![I:staff -1] z[I:staff +1] [D,^G,D][I:staff -1] z[I:staff +1] [E,^A,C][I:staff -1] z[I:staff +1] [E,G,C]!<)! | %27
[I:staff -1] z[I:staff +1] [D,F,C][D,F,C]!fermata![D,F,C] [D,G,B,]4 :| %28
[I:staff -1] z[I:staff +1] [D,G,][I:staff -1]z[I:staff +1][D,^G,][I:staff -1] z[I:staff +1] [E,A,^C][E,A,C][E,A,C] | %29
[I:staff -1] z!<(! [F,A,D][F,A,D][F,A,D]!<)! z!>(!!>(! [F,B,^D][F,B,D][F,B,D]!>)!!>)! | %30
 z!<(! [G,B,E]z[G,^CG]!<)! z!>(! [G,B,DG][G,B,DG][G,B,D]!>)! | %31
"_rit."[I:staff +1] [E,G,^C]2 !fermata![D,F,=C]2 !fermata![D,G,^C]4 | %32
"^Lento."[I:staff -1] [G,B,]4 [G,B,D]4 | [G,B,DG]8 |] %34
V:4
 [G,,,G,,]!ped! [D,G,B,][D,G,B,][D,G,B,] [A,,,A,,] [D,F,C][D,F,C][D,F,C]!ped-up! | %1
 [D,,D,] [D,F,C][D,F,C][D,F,C] [G,,,G,,] [D,G,B,][D,G,B,][D,G,B,] | %2
 z4 [C,,C,] [C,E,A,][C,E,A,][C,E,A,] | [D,,D,] [D,A,C][D,A,C][D,A,C] [G,B,] z z2 | %4
 G,,2 z2 G,,2 z2 | D,,2 z2 G,,2 z2 | B,,2 z2 A,,2 z2 | A,,2 z2 D,,2 (E,,F,,) | G,,2 z2 A,,2 z2 | %9
 D,,2 z2 G,,2 z2 | G,,2 z2 F,,2 z2 | (F,,4 B,,2) z2 | (A,,4 G,,2) z2 | B,,2 z2 E,,2 z2 | %14
 F,,4 G,,4 | A,,2 B,,2 E,2 z2 | ^C,2 A,,2 D,2 A,,2 | E,2 A,,2 D,2 =C,2 | B,,2 _B,,2 A,,4 | %19
 A,,,2- [A,,,A,,]2"^rit." D,, (F,G,A,) |"^a tempo." (G,,D,G,D,) (D,,D,F,D,) | %21
 (D,,D,F,D,) (G,,D,G,D,) | (E,,E,G,E,) (A,,D,F,A,) | A,,2 A,,2 [D,,D,] [D,A,D][D,_B,^C][D,A,=C] | %24
 [G,,,G,,] [D,G,B,][D,G,B,][D,G,B,] [A,,,A,,] [D,F,C][D,F,C][D,F,C] | %25
 [D,,D,] [D,F,C][D,F,C][D,F,C] [G,,,G,,] D,G,B, | B,,2 E,,2 A,,2 A,,2 | %27
"^rit." !fermata!E,,4 G,,,G,,B,,D, :| B,,2 E,,2 A,,2 A,,2 | (D,,2 C,,2 B,,,4) | %30
 E,,2 _E,,2"^colla voce" D,,4 | D,,2 !fermata![D,,,D,,]2 !fermata![G,,,A,,]4 | %32
 [D,,D,]4 [B,,,B,,]4 | [G,,,G,,]8 |] %34
V:5
 x8 | x8 | x8 | x8 | x8 | x8 | x8 | x8 | x8 | x8 | x8 | x8 | x8 | x8 | x8 | x7 E | x8 | x8 | x8 | %19
 x8 | x8 | x8 | x8 | x8 | x8 | x8 | x8 | x8 :| x D x D x4 | x8 | x8 | x8 | x8 | x8 |] %34
V:6
 x8 | x8 | x8 | x8 | x8 | x8 | x8 | x8 | x8 | x8 | x8 | x8 | x8 | x8 | x8 | x8 | x8 | x8 | x8 | %19
 x5 D,3 | x8 | x8 | x8 | x8 | x8 | x8 | x8 | x8 :| x8 | x8 | x8 | x8 | x8 | x8 |] %34

